X:84
T:T053- Up and war them a' Willie
S:Bremner's Reels, c 1760
Q:1/4=120
L:1/8
M:C|
K:A
e|A/A/A ~c3/2A/d2df|A/A/A ~c3/2A/B2Bf|A/A/A c3/2A/ defa|\
e3/2d/~c3/2B/A2A::f/g/|aecAd2df/g/|aeceB2Bf/g/|\
a/g/f/e/ d/c/B/A/ Aefa|ed~cBA2A:|]

